X: 248
T: Reconciliation Reel
R: reel
M: 4/4
L: 1/8
K: Amaj
A2cA eAfA | eAfA ecBc | A2cA eAfA | ecBc AFEF |
A2cA eAfA | eAfA ecBc | ABAF EFAf | ecBc A3B :|
ABce ~a3f | efed cdBc | ABce a3g | fbba gefg |
~a3e faec | dBcA BAFG | ABAF EFAf | ecBc A3B :|

